X:1
T:Closer to Thee
T:Closer to Thee
T:J. P. Vance
T:J. P. Ashley, 1893
T:Public Domain Courtesy of the Cyber Hymnal™
T:Public Domain Courtesy of the Cyber Hymnal™
C:J. P. Vance
Z:Public Domain
Z:Courtesy of the Cyber Hymnal™
%%score ( 1 2 ) ( 3 4 )
L:1/8
Q:1/4=102
M:4/4
K:Ab
V:1 treble 
V:2 treble 
V:3 bass 
V:4 bass 
V:1
 [CE]2 [CA]2 [Ec]3 [EA] | (BA)[EG][DF] [CE]2 [CE]2 | [CE]2 [CA]2 [Fd]3 [Ec] | (BA) (GA) B4 | %4
w: 1.~Je- sus, draw us|clos- * er to Th- ee,|Fill our hearts with|joy * and * peace,|
w: 2.~We would see Thee,|ble- * ss- èd Je- sus,|See Thee in Thy|crim- * son * dress;|
w: 3.~Thou a- lone from|sin * ca- nst save us,|Thou a- lone canst|cleanse * the * soul;|
 [CE]2 [CA]2 [Ec]3 [EA] | (BA) ([EG][DF]) [CE]2 [A,C]2 |!<(! [CA]2 [Ec]2 [Ee]3!<)! [Fd] | %7
w: Crown our wor- ship|with * Thy * pre- sence,|Bid us from all|
w: We would catch Thy|smile, * so * gra- cious,|We would all our|
w: Speak the word, O|might- * y * Je- sus,|And we’re ev- ery|
 [Ec]2 [DB]2 [CA]4 |!f! E2 E2 E3 E | [EB]2 [EA]2 [EA]2 [EG]2 |!p! E2 E2 E3 E | [EB]2 [EA]2 [EG]4 | %12
w: sor- row cease;|Grant us from our|sins de- liv- erance,|From all un- be-|lief set free;|
w: sins con- fess;|We would hear Thy|words so ten- der,|Fall- ing like the|gra- cious dew;|
w: whit made whole;|Now I see Thee,|pre- cious Je- sus,|See Thee as my|sov- ereign king;|
!mf! [CE]2 [CA]2 [Ec]3 [EA] | (BA) ([EG][DF]) [CE]2 [A,C]2 |!<(! [CA]2 [Ec]2 [Ee]3!<)! [Fd] | %15
w: Come, O come, Thou|blest * Re- * deem- er,|That Thy glo- ry|
w: We our hearts and|minds * sur- * ren- der,|Take them, Lord, and|
w: Joy, O joy, I’ve|found * sal- * va- tion,|Heav’n and earth His|
 [Ec]2 [EB]2 [EA]4 ||"^Refrain" [EG]4 [EG]3 [EA] | [GB]6 E2 | [EA]4 [EA]3 [EB] | [Ec]6 [Ec][Fd] | %20
w: we may see.|||||
w: make them new.|Clos- er to|Thee, yes,|clos- er to|Thee, May we|
w: prais- es sing.|||||
"^riten." [Ee]3 [Ee]!>(! [Fd]2 [Ec]2!>)! | [FB]4 !fermata!F4 | (A2 G2) [Gc]3 [GB] | A6 z2 |] %24
w: ||||
w: ev- er still be|cling- ing,|Clos- * er to|Thee.|
w: ||||
V:2
 x8 | F2 x6 | x8 | =D2 D2 (E2 _D2) | x8 | F2 x6 | x8 | x8 | E2 E2 E3 E | x8 | E2 E2 E3 E | x8 | %12
 x8 | F2 x6 | x8 | x8 || x8 | x6 E2 | x8 | x8 | x8 | x4 F4 | E4 x4 | A6 x2 |] %24
V:3
 [A,,A,]2 [A,,E,]2 [A,,A,]3 [C,A,] | [D,A,]2 [D,A,][D,A,] A,2 A,2 | A,2 A,2 [A,,A,]3 [A,,A,] | %3
 [B,,A,]2 [B,,A,]2 [E,G,]4 | A,2 A,2 A,3 [C,A,] | [D,A,]2 [D,A,]2 A,2 A,2 | %6
 A,2 A,2 [C,A,]3 [D,A,] | [E,A,]2 [E,G,]2 [A,,A,]4 | E,2 E,2 E,3 E, | %9
 [E,D]2 [E,C]2 [E,C]2 [E,B,]2 | E,2 E,2 E,3 E, | [E,D]2 [E,C]2 [E,B,]4 | A,2 A,2 [A,,A,]3 [C,A,] | %13
 [D,A,]2 [D,A,]2 [A,,A,]2 [A,,E,]2 | [A,,A,]2 [A,,A,]2 [C,A,]3 [D,A,] | [E,A,]2 [E,D]2 [A,,C]4 || %16
 [E,B,]4 [E,B,]3 [E,C] | [E,D]6 [D,G,]2 | [C,A,]4 [C,A,]3 [E,G,] | A,6 A,[A,B,] | %20
 [A,C]3 [A,C] A,2 A,2 | [D,D]4 !fermata![D,A,]4 | (C2 B,2) [E,E]3 [E,D] | [A,,E,C]6 z2 |] %24
V:4
 x8 | x4 A,2 A,2 | A,2 A,2 x4 | x8 | A,2 A,2 A,3 x | x4 A,2 A,2 | A,2 A,2 x4 | x8 | %8
 E,2 E,2 E,3 E, | x8 | E,2 E,2 E,3 E, | x8 | A,2 A,2 x4 | x8 | x8 | x8 || x8 | x8 | x8 | A,6 A, x | %20
 x4 A,2 A,2 | x8 | E,4 x4 | x8 |] %24

